modules/framework7-icons/icons/tune.svg

<?xml version="1.0" encoding="UTF-8"?>
<svg width="38px" height="49px" viewBox="0 0 38 49" version="1.1" xmlns="http://www.w3.org/2000/svg" xmlns:xlink="http://www.w3.org/1999/xlink">
    <!-- Generator: Sketch 40.1 (33804) - http://www.bohemiancoding.com/sketch -->
    <title>tune</title>
    <desc>Created with Sketch.</desc>
    <defs></defs>
    <g id="Page-1" stroke="none" stroke-width="1" fill="none" fill-rule="evenodd">
        <g id="tune" fill="#000000">
            <path d="M30.6712652,31.758697 C29.9222083,31.8431952 29.4839038,31.9084047 29.0042808,32.0207584 C28.641676,32.1057002 28.2946477,32.2122198 27.9450788,32.3483375 C24.248385,33.7877836 22.7572852,37.6580831 23.9086479,40.4339015 C25.0067935,43.0814188 27.9552247,44.4000882 31.1608943,43.7404781 C33.3004084,43.3002441 35.6089248,41.9118035 36.6772961,39.9175158 C36.9748332,39.3621148 37.2029266,38.7394782 37.371604,38.0617294 C37.6921211,36.773886 37.7737732,35.449721 37.7263715,34.3131559 C37.7222048,34.2132491 37.7178534,34.1400663 37.7145699,34.0965965 L37.4395776,1.98908902 C37.4295396,0.826485484 36.4229385,-0.00754879703 35.2832164,0.183945007 L13.6926613,3.81154665 C12.6642691,3.98433504 11.8760758,4.92018459 11.8810175,5.96836157 C11.8815017,6.06504553 11.8815017,6.06504553 11.8836764,6.51778457 C11.8865762,7.13385232 11.888147,7.47531243 11.8906845,8.0468852 C11.8979345,9.67998868 11.9051845,11.4616153 11.9119513,13.3323767 C11.9231352,16.4243514 11.9318615,19.4467049 11.9371843,22.283221 C11.953276,30.8583616 11.9365408,36.6062035 11.8769744,38.1430634 C11.7130336,42.372867 11.429349,43.5184142 10.0901779,44.781032 C8.82941465,45.969724 6.88131235,46.3200191 5.16235875,45.9584907 C3.69368898,45.6496017 2.68611,44.9367015 2.41695836,43.9233121 C1.83377951,41.7275711 3.02592605,39.8299776 5.2537151,39.1366166 C5.82939515,38.9574462 6.40428927,38.8317404 7.17068314,38.7054039 C7.35787385,38.6745463 7.52925825,38.6477218 7.83845441,38.6003487 C10.3271533,38.2190464 11.521563,37.9152952 13.3227931,37.016302 L12.4296552,35.2268036 C10.859165,36.0106345 9.83478217,36.2711461 7.53556186,36.6234178 C7.21927926,36.6718765 7.04212996,36.6996034 6.84538252,36.7320363 C5.99555393,36.8721267 5.33638429,37.01626 4.65937019,37.226969 C1.45234554,38.2251001 -0.387841742,41.1542093 0.483973945,44.436704 C0.981198343,46.3088158 2.61841151,47.467206 4.75072655,47.9156721 C7.05604291,48.4005236 9.66405613,47.9315676 11.4621867,46.2362267 C13.3099374,44.4941023 13.6921379,42.9507378 13.8754739,38.2205222 C13.9366634,36.6417838 13.9533668,30.9048706 13.9371808,22.2794679 C13.9318556,19.4416849 13.9231261,16.418202 13.9119382,13.3251426 C13.9051694,11.4538031 13.8979171,9.67163378 13.8906648,8.03800647 C13.8881264,7.46622346 13.886555,7.12464733 13.8836539,6.50828907 C13.8814779,6.05527517 13.8814779,6.05527517 13.8809938,5.95863834 C13.8806756,5.89112388 13.9622335,5.79428724 14.0240522,5.78390059 L35.6146074,2.15629894 C35.5469016,2.16767473 35.4402822,2.07933366 35.4396521,2.00635661 L35.7174478,34.1805512 C35.7218825,34.2688342 35.7249032,34.3196383 35.7281086,34.3964957 C35.7682518,35.359021 35.697441,36.5073704 35.4308081,37.5787061 C35.2998017,38.1050922 35.1278053,38.5745983 34.9143373,38.973071 C34.1668849,40.3683116 32.3680959,41.4501803 30.7578117,41.7815181 C28.4413705,42.2581573 26.463654,41.3736347 25.7560347,39.6676366 C25.0226666,37.8995606 26.0502187,35.2324458 28.6707783,34.2120328 C28.9307065,34.1108201 29.1877345,34.0319259 29.4604407,33.9680433 C29.8439328,33.8782086 30.219196,33.8223782 30.8954555,33.746092 C33.4424661,33.4587735 34.6164982,33.2466355 37.0216762,32.4783983 L36.4131449,30.5732238 C34.1584841,31.2933844 33.0988663,31.4848487 30.6712652,31.758697 Z" id="Path-3"></path>
            <polygon id="Line" points="35.5297852 10.6133258 13.9101563 14.5150947 13.9101563 16.4849053 35.5401554 12.6411213"></polygon>
        </g>
    </g>
</svg>

<svg width="38" height="49" xmlns="http://www.w3.org/2000/svg"><g fill-rule="evenodd"><path d="M30.671 31.759c-.749.084-1.187.15-1.667.262a7.8 7.8 0 0 0-1.059.327c-3.697 1.44-5.188 5.31-4.036 8.086 1.098 2.647 4.046 3.966 7.252 3.306 2.14-.44 4.448-1.828 5.516-3.822a8.026 8.026 0 0 0 .695-1.856c.32-1.288.402-2.612.354-3.749a6.89 6.89 0 0 0-.011-.216L37.44 1.989A1.826 1.826 0 0 0 35.283.184l-21.59 3.628c-1.029.172-1.817 1.108-1.812 2.156l.003.55a4919.004 4919.004 0 0 1 .028 6.814c.011 3.092.02 6.115.025 8.951.016 8.575 0 14.323-.06 15.86-.164 4.23-.448 5.375-1.787 6.638-1.26 1.189-3.209 1.539-4.928 1.177-1.468-.308-2.476-1.021-2.745-2.035-.583-2.195.609-4.093 2.837-4.786.575-.18 1.15-.305 1.917-.432l.667-.105c2.49-.381 3.684-.685 5.485-1.584l-.893-1.79c-1.57.785-2.595 1.045-4.894 1.397a76.54 76.54 0 0 0-.69.109c-.85.14-1.51.284-2.187.495-3.207.998-5.047 3.927-4.175 7.21.497 1.872 2.134 3.03 4.267 3.479 2.305.485 4.913.016 6.711-1.68 1.848-1.742 2.23-3.285 2.413-8.015.062-1.58.078-7.316.062-15.942a5194.324 5194.324 0 0 0-.053-15.77l-.003-.55c0-.068.081-.165.143-.175l21.59-3.628c-.067.012-.174-.077-.174-.15l.277 32.175.011.215c.04.963-.03 2.111-.297 3.183a6.063 6.063 0 0 1-.517 1.394c-.747 1.395-2.546 2.477-4.156 2.809-2.317.476-4.294-.408-5.002-2.114-.733-1.768.294-4.436 2.915-5.456.26-.101.517-.18.79-.244.383-.09.758-.146 1.434-.222 2.547-.287 3.721-.5 6.127-1.268l-.609-1.905c-2.255.72-3.314.912-5.742 1.186z"/><path d="M35.53 10.613l-21.62 3.902v1.97l21.63-3.844z"/></g></svg>
